svg/logo/wechat_pay_fill.svg

<?xml version="1.0" encoding="UTF-8"?>
<svg width="24px" height="24px" viewBox="0 0 24 24" version="1.1" xmlns="http://www.w3.org/2000/svg" xmlns:xlink="http://www.w3.org/1999/xlink">
    <title>wechat_pay_fill</title>
    <g id="Icon" stroke="none" stroke-width="1" fill="none" fill-rule="evenodd">
        <g id="Logo" transform="translate(-960.000000, -240.000000)" fill-rule="nonzero">
            <g id="wechat_pay_fill" transform="translate(960.000000, 240.000000)">
                <path d="M24,0 L24,24 L0,24 L0,0 L24,0 Z M12.5935,23.2578 L12.5819,23.2595 L12.5109,23.295 L12.4919,23.2987 L12.4767,23.295 L12.4057,23.2595 C12.3958,23.2564 12.387,23.259 12.3821,23.2649 L12.378,23.2758 L12.3609,23.7031 L12.3659,23.7235 L12.3769,23.7357 L12.4805,23.8097 L12.4953,23.8136 L12.5071,23.8097 L12.6107,23.7357 L12.6233,23.7197 L12.6267,23.7031 L12.6096,23.2758 C12.6076,23.2657 12.601,23.2593 12.5935,23.2578 Z M12.8584,23.1453 L12.8445,23.1473 L12.6598,23.2397 L12.6499,23.2499 L12.6472,23.2611 L12.6651,23.6906 L12.6699,23.7034 L12.6784,23.7105 L12.8793,23.8032 C12.8914,23.8069 12.9022,23.803 12.9078,23.7952 L12.9118,23.7812 L12.8777,23.1665 C12.8753,23.1546 12.8674,23.147 12.8584,23.1453 Z M12.143,23.1473 C12.1332,23.1424 12.1222,23.1453 12.1156,23.1526 L12.1099,23.1665 L12.0758,23.7812 C12.0751,23.7927 12.0828,23.8019 12.0926,23.8046 L12.1083,23.8032 L12.3092,23.7105 L12.3186,23.7024 L12.3225,23.6906 L12.3404,23.2611 L12.3372,23.2485 L12.3278,23.2397 L12.143,23.1473 Z" id="MingCute"></path>
                <path d="M12,3 C6.65561,3 2,6.64261 2,11.5 C2,14.2978 3.57701,16.7225 5.90624,18.2438 C6.08006,18.6269 6.0494,19.0965 6.02066,19.5367 C6.0102,19.6969 6,19.8532 6,20 C6,20.5523 6.44772,21 7,21 C8.24917,21 9.0713,20.5887 9.63851,20.1891 C9.83571,20.0501 9.99597,19.918 10.0886,19.8452 C10.708,19.9469 11.3472,20 12,20 C17.3444,20 22,16.3574 22,11.5 C22,10.1737 21.6529,8.93789 21.0394,7.84212 L21.0369,7.84371 L10.0369,14.8437 C9.80619,14.9905 9.52541,15.0365 9.25993,14.9708 C8.99446,14.9051 8.76746,14.7336 8.63178,14.4962 L6.63178,10.9962 C6.40609,10.6012 6.47541,10.1037 6.80048,9.78546 C7.12555,9.46724 7.62444,9.40851 8.01452,9.64256 L9.59443,10.5905 C9.88176,10.7629 10.2363,10.7799 10.5389,10.6359 L19.836,6.20866 C17.9738,4.22795 15.103,3 12,3 Z" id="路径" fill="#09244B"></path>
            </g>
        </g>
    </g>
</svg>

<svg xmlns="http://www.w3.org/2000/svg" width="24" height="24"><g fill="none" fill-rule="nonzero"><path d="M24 0v24H0V0h24ZM12.594 23.258l-.012.002-.071.035-.02.004-.014-.004-.071-.036c-.01-.003-.019 0-.024.006l-.004.01-.017.428.005.02.01.013.104.074.015.004.012-.004.104-.074.012-.016.004-.017-.017-.427c-.002-.01-.009-.017-.016-.018Zm.264-.113-.014.002-.184.093-.01.01-.003.011.018.43.005.012.008.008.201.092c.012.004.023 0 .029-.008l.004-.014-.034-.614c-.003-.012-.01-.02-.02-.022Zm-.715.002a.023.023 0 0 0-.027.006l-.006.014-.034.614c0 .012.007.02.017.024l.015-.002.201-.093.01-.008.003-.011.018-.43-.003-.012-.01-.01-.184-.092Z"/><path fill="#09244B" d="M12 3C6.656 3 2 6.643 2 11.5c0 2.798 1.577 5.223 3.906 6.744.174.383.143.852.115 1.293-.01.16-.021.316-.021.463a1 1 0 0 0 1 1c1.25 0 2.071-.411 2.639-.81.197-.14.357-.272.45-.345.619.102 1.258.155 1.911.155 5.344 0 10-3.643 10-8.5a7.434 7.434 0 0 0-.96-3.658l-.003.002-11 7a1 1 0 0 1-1.405-.348l-2-3.5a1 1 0 0 1 1.383-1.353l1.58.947a1 1 0 0 0 .944.046l9.297-4.427C17.974 4.228 15.103 3 12 3Z"/></g></svg>
